X:1
T:The Greatness of His Mercy
T:Lizzie R. Clemmer
T:The Greatness of His Mercy
T:Public Domain
T:Public Domain
T:Public Domain
C:Lizzie R. Clemmer
Z:Public Domain
%%score 1 ( 2 3 )
L:1/8
M:4/4
K:C
V:1 treble 
V:2 bass 
V:3 bass 
V:1
 [CE][DF] | [EG][^D^F][EG][=FA] [EG]2 [CE][=DF] | [EG][^D^F][EG][=FA] [EG]2 [B,=D][CE] | %3
w: 1.~When in|Je- sus we be- lieve, and His|par- don we re- ceive, What a|
w: 2.~When in|Je- sus we a- bide, and by|faith are jus- ti- fied, We have|
w: 3.~When in|Je- sus we are one we can|say, His will be done, We can|
w: 4.~Oh, the|whis- pers of His love, how they|cheer us from a- bove, While they|
 [B,F][CE][B,D][CE] [DF][EG][FA][EG] | [CE]6 [CE][DF] | [EG][^D^F][EG][=FA] [EG]2 [CE][=DF] | %6
w: com- fort to the soul the prom- ise|brings; That the|wear- y and op- pressed, when they|
w: peace with God the Fa- ther through His|name; And the|joy that fills the heart, though its|
w: trust Him where per- haps we can- not|trace; For he|keeps us by His power, ev- ery|
w: tell of yon- der man- sions bright and|fair; Where, be-|yond the swell- ing tide, we shall|
 [EG][^D^F][EG][=FA] [EG]2 [B,=D][CE] | [B,F][CE][B,D][CE] [DF][EG][FA][FB] | [Ec]6 || %9
w: come to Him for rest, He will|co- ver with the sha- dow of His|wings.|
w: earth- ly hopes de- part, Through His|all a- ton- ing mer- it we may|claim.|
w: mo- ment, ev- ery hour, And we|feel the sweet re- fresh- ing of His|grace.|
w: an- chor at His side, And be|ga- thered with the saints in glor- y|there.|
"^Refrain" [Ec]4 [GB]2 [FA]2 | [EG]>[^D^F] [EG]>[=FA] [EG]2 [CE]2 | %11
w: ||
w: ||
w: ||
w: ||
 [DF]>[^CE] [DF]>[EG] [DF]2 [B,D]2 | [CE]>[DF] [EG]>[FA] [EG]4 | [Ec]4 [GB]2 [FA]2 | %14
w: |||
w: |||
w: |||
w: |||
 [EG]>[^D^F] [EG]>[=FA] [EG]2 [CE]2 | [B,D]>[CE] [DF]>[EG] [FA]2 [FB]2 | [Ec]6 |] %17
w: |||
w: |||
w: |||
w: |||
V:2
 [C,G,][C,G,] | [C,C][C,C][C,C][C,C] [C,C]2 [C,G,][C,G,] | [C,C][C,C][C,C][C,C] [C,G,]2 F,[E,G,] | %3
w: ~ ~|~ ~ ~ ~ ~ ~ ~|~ ~ ~ ~ ~ ~ ~|
 [D,G,]G,G,G, [G,,G,][G,,G,][G,,G,][G,,G,] | [C,G,]6 [C,G,][C,G,] | %5
w: ~ ~ ~ ~ ~ ~ ~ ~|~ ~ ~|
 [C,C][C,C][C,C][C,C] [C,C]2 [C,G,][C,G,] | [C,C][C,C][C,C][C,C] [C,G,]2 F,[E,G,] | %7
w: ~ ~ ~ ~ ~ ~ ~|~ ~ ~ ~ ~ ~ ~|
 [D,G,][G,,G,][G,,G,][G,,G,] [G,,G,][G,,G,][G,,G,][G,,G,] | [C,G,]6 || [C,G,]4 [C,C]2 [C,C]2 | %10
w: ~ ~ ~ ~ O sing the great-|ness|of His mer-|
 [C,C]>[C,C] [C,C]>[C,C] [C,C]2 [C,G,]2 | [G,,G,]>[G,,G,] [G,,G,]>[G,,G,] [A,,G,]2 [A,,G,]2 | %12
w: cy, Un- to those that seek|Him ev- er full and free;|
 [C,G,]>[C,G,] [C,C]>[C,C] [C,C]4 | [C,G,]4 [C,C]2 [C,C]2 | %14
w: O sing, while an- gels|join the chor-|
 [C,C]>[C,C] [C,C]>[C,C] [C,C]2 [C,G,]2 | [G,,G,]>[G,,G,] [G,,G,]>[G,,G,] [G,,G,]2 [G,,G,]2 | %16
w: us, Roll- ing on- ward like|the sea. * * * *|
 [C,G,]6 |] %17
w: |
V:3
 x2 | x8 | x6 F, x | x G,G,G, x4 | x8 | x8 | x6 F, x | x8 | x6 || x8 | x8 | x8 | x8 | x8 | x8 | %15
w: ||~|~ ~ ~|||~|||||||||
 x8 | x6 |] %17
w: ||

